X:1
T:Mar Castle [2]
T:Mar Castle [2]
T:Alexander Walker
C:Alexander Walker
L:1/8
M:4/4
K:E
V:1 treble 
V:1
 B | B<EG>F [G,E]2 B,E | G>EB>G c<FF>e | B<EG>F E2 B,G | A>cG>B e<EE>c | B<EG>F [G,E]2 B,>E | %6
 G>EB>G c<FF>d | e>gd>f c>eB>G | A>cB>a g<e e || g | b>e a/g/f/d/ e2 B>G | A>B c/B/A/G/ c<FF>g | %12
 b>e a/g/f/d/ e2 B>G | (3ABc (3Bcd eEE>g | b>e a/g/f/d/ e2 B>G | A>B c/B/A/G/ c<FF>G | %16
 E>GF>A G>BA>c | B>ef>a g<e e || %18

